!!!COM: Beethoven
!!!OTL: Neun Variationen uber einen Marsch von E. Chr. Dressler
!!!Variation: Variation 9 b
**function	**harm	**kern	**kern
*M4/4	*M4/4	*staff1	*staff2
*tb16	*	*	*
=-	=-	=-	=-
*	*	*clefG2	*clefF4
*	*	*k[b-e-a-]	*k[b-e-a-]
*	*	*M4/4	*M4/4
*	*	*c:	*c:
1T	1V2	16r	4c 4d
.	.	16f#LL	.
.	.	16g	.
.	.	16aJJ	.
.	.	16bLL	4c 4d
.	.	16cc	.
.	.	16dd	.
.	.	16eeJJ	.
.	.	16ff#LL	4c 4d
.	.	16ee	.
.	.	16dd	.
.	.	16ccJJ	.
.	.	16bLL	4r
.	.	16a	.
.	.	16g	.
.	.	16f#JJ	.
=	=	=154	=154
1T	1I6	16r	4B 4d
.	.	16gLL	.
.	.	16a	.
.	.	16bJJ	.
.	.	16ccLL	4B 4d
.	.	16dd	.
.	.	16ee	.
.	.	16ff#JJ	.
.	.	8gg'L	4B 4d
.	.	8dd'	.
.	.	8b'	4r
.	.	8g'J	.
=	=	=155	=155
1T	1V2	16r	4c 4d
.	.	16f#LL	.
.	.	16g	.
.	.	16aJJ	.
.	.	16bLL	4c 4d
.	.	16cc	.
.	.	16dd	.
.	.	16eeJJ	.
.	.	16ff#LL	4c 4d
.	.	16ee	.
.	.	16dd	.
.	.	16ccJJ	.
.	.	16bLL	4r
.	.	16a	.
.	.	16g	.
.	.	16f#JJ	.
=	=	=156	=156
1T	1I6	16r	4B 4d
.	.	16gLL	.
.	.	16a	.
.	.	16bJJ	.
.	.	16ccLL	4B 4d
.	.	16dd	.
.	.	16ee	.
.	.	16ff#JJ	.
.	.	8gg'L	4B 4d
.	.	8dd'	.
.	.	8b'	4r
.	.	8g'J	.
=	=	=157	=157
1PD	1IV	16eeLL	4c
.	.	16dd#	.
.	.	16ee	.
.	.	16ff#JJ	.
.	.	16ggLL	4r
.	.	16ee	.
.	.	16cc	.
.	.	16bJJ	.
.	.	16ccLL	4c 4e
.	.	16b	.
.	.	16cc	.
.	.	16ddJJ	.
.	.	16eeLL	4r
.	.	16cc	.
.	.	16a	.
.	.	16g#JJ	.
=	=	=158	=158
2PD	2ii6	16aLL	4c 4e
.	.	16g#	.
.	.	16a	.
.	.	16eeJJ	.
.	.	16ddLL	8AL
.	.	16cc	.
.	.	16b	8cJ
.	.	16aJJ	.
4D	4C64	(16bLL	4d
.	.	16cc	.
.	.	16dd)	.
.	.	16g'JJ	.
4D	4V7	(16ccLL	4D
.	.	16b	.
.	.	16cc)	.
.	.	16f#'JJ	.
=	=	=159	=159
1T	1I	2g	16GGLL
.	.	.	16G
.	.	.	16F#
.	.	.	16EJJ
.	.	.	16DLL
.	.	.	16C
.	.	.	16BB
.	.	.	16AAJJ
.	.	4.B 4.d 4.g	16GGLL
.	.	.	16G
.	.	.	16F#
.	.	.	16EJJ
.	.	.	16DLL
.	.	.	16C
.	.	8B 8d 8g	16BB
.	.	.	16AAJJ
=	=	=160	=160
1T	1I	2B 2d 2g	2GG
.	.	2r	2r
==	==	=161:|!|:	=161:|!|:
*-	*-	*-	*-
